X: 24
P: G\aangl\aat
R: g\aangl\aat
S: Janet Gage, Oct 1998
Z: John Chambers <jc@trillian.mit.edu>
M: 2/4
L: 1/8
K: Dm
|: A, \
| A,>D DE | TFE/F/ D>E | TFG/F/ ED/C/ | DA A2- \
| A2 A>A | A^c de | fe/f/ d>e | fg/f/ e/d/c | d3 :|
|: e \
| f>c fa | Tg>e ce/g/ | Tf>e fg | a2- a(3a/^g/a/ \
| c'>a af | gf/g/ af/e/ | dg e/d/c | d3 :|
